greenToWhite.CUBE
#Created by: Adobe Photoshop Export Color Lookup Plugin
TITLE "greensacpe.jpg"
#LUT size
LUT_3D_SIZE 5
#data domain
#LUT data points
DOMAIN_MIN 0.000000 0.000000 0.000000
DOMAIN_MAX 0.903226 0.903226 0.903226
0.000000 0.000000 0.000000
0.258209 0.002533 0.002533
0.496216 0.004883 0.004883
0.714081 0.007050 0.007050
0.911713 0.008972 0.008972
0.390503 0.391479 0.390961
0.377716 0.377716 0.376251
0.545013 0.466919 0.398560
0.743195 0.449921 0.314636
0.931244 0.404144 0.232758
0.684937 0.686310 0.685577
0.675140 0.676514 0.674652
0.666840 0.666840 0.664764
0.774658 0.759918 0.733521
0.878143 0.790161 0.705231
0.883301 0.884521 0.883881
0.880157 0.881561 0.880219
0.869385 0.870148 0.868256
0.867340 0.867340 0.865509
0.932739 0.931335 0.927338
0.985565 0.986053 0.985779
0.985535 0.986023 0.985626
0.982147 0.982605 0.981964
0.979004 0.979187 0.978455
0.979187 0.979187 0.978455
0.015411 0.000000 0.196503
0.201019 0.000000 0.201019
0.451355 0.000000 0.213898
0.693329 0.000000 0.221588
0.906860 0.007141 0.228790
0.000000 0.205536 0.205536
0.225800 0.225800 0.225800
0.473938 0.228241 0.228241
0.701874 0.230499 0.230499
0.909576 0.232544 0.232544
0.419708 0.526733 0.498962
0.565338 0.566315 0.565796
0.552551 0.552551 0.551086
0.709808 0.640717 0.576965
0.894989 0.629211 0.499542
0.765686 0.784760 0.779602
0.808807 0.810181 0.809448
0.799011 0.800385 0.798523
0.790710 0.790710 0.788635
0.890839 0.879822 0.858521
0.951935 0.953552 0.953094
0.956146 0.957367 0.956726
0.953003 0.954407 0.953064
0.942230 0.942993 0.941101
0.940186 0.940186 0.938354
0.030792 0.000000 0.392975
0.210999 0.000000 0.397888
0.402008 0.000000 0.402008
0.628510 0.000000 0.410156
0.859772 0.000000 0.425690
0.001862 0.202057 0.419403
0.226257 0.212738 0.435333
0.437408 0.215179 0.437408
0.675018 0.217194 0.438965
0.898987 0.224487 0.446472
0.000000 0.411041 0.411041
0.222992 0.434143 0.434143
0.451599 0.451599 0.451599
0.689636 0.453949 0.453949
0.907440 0.456085 0.456085
0.308716 0.713867 0.613281
0.594543 0.701569 0.673798
0.740173 0.741150 0.740631
0.727386 0.727386 0.725922
0.874451 0.814240 0.755493
0.726318 0.877899 0.838562
0.889496 0.908569 0.903412
0.932617 0.933990 0.933258
0.922821 0.924194 0.922333
0.914520 0.914520 0.912445
0.046204 0.000000 0.589478
0.221466 0.000000 0.592529
0.409149 0.000000 0.600891
0.603027 0.000000 0.603027
0.807922 0.000000 0.602997
0.001434 0.188202 0.631042
0.226776 0.199707 0.644897
0.434204 0.202484 0.646820
0.649017 0.204590 0.649017
0.870087 0.199249 0.643585
0.003723 0.414185 0.627808
0.224274 0.427765 0.644409
0.448090 0.438538 0.661163
0.663239 0.440979 0.663239
0.891541 0.441528 0.664459
0.000000 0.616608 0.616608
0.220184 0.642487 0.642487
0.448792 0.659973 0.659973
0.677429 0.677429 0.677429
0.905334 0.679657 0.679657
0.221985 0.876740 0.717834
0.483490 0.888672 0.788055
0.769348 0.876373 0.848602
0.914978 0.915955 0.915436
0.902191 0.902191 0.900726
0.061584 0.000000 0.785950
0.232758 0.000000 0.787262
0.414795 0.000000 0.795441
0.607941 0.000000 0.803802
0.804016 0.000000 0.804016
0.003998 0.174194 0.841949
0.227234 0.186646 0.854401
0.429993 0.188782 0.855011
0.642792 0.192932 0.859344
0.860626 0.194000 0.860626
0.003784 0.404175 0.838837
0.218781 0.413452 0.856689
0.444641 0.425507 0.870697
0.656006 0.427521 0.873169
0.874817 0.430389 0.874817
0.006683 0.623657 0.834717
0.225433 0.639801 0.853363
0.445923 0.653290 0.869995
0.670013 0.664368 0.886963
0.889038 0.666809 0.889038
0.000000 0.822113 0.822113
0.217377 0.850830 0.850830
0.445984 0.868286 0.868286
0.674622 0.885773 0.885773
0.903229 0.903229 0.903229
