greenToWhite.CUBE
#Created by: Adobe Photoshop Export Color Lookup Plugin
TITLE "greensacpe.jpg"
#LUT size
LUT_3D_SIZE 8
#data domain
#LUT data points
DOMAIN_MIN 0.000000 0.000000 0.000000
DOMAIN_MAX 0.903226 0.903226 0.903226
0.000000 0.000000 0.000000
0.150024 0.001465 0.001465
0.293457 0.002899 0.002899
0.430298 0.004242 0.004242
0.560577 0.005524 0.005524
0.684235 0.006744 0.006744
0.801270 0.007904 0.007904
0.911713 0.008972 0.008972
0.234894 0.235535 0.235199
0.226685 0.226685 0.225739
0.337494 0.284302 0.238861
0.477234 0.269714 0.178772
0.611267 0.243958 0.133789
0.721741 0.245056 0.134857
0.825623 0.246033 0.135895
0.922852 0.246979 0.136841
0.438446 0.439514 0.438934
0.430908 0.431946 0.430511
0.424469 0.424469 0.422852
0.511353 0.498108 0.475403
0.605652 0.522064 0.448090
0.710266 0.521057 0.405975
0.814880 0.505585 0.359802
0.915192 0.482422 0.313690
0.610626 0.611938 0.611237
0.607208 0.608734 0.607300
0.595490 0.596313 0.594269
0.593292 0.593292 0.591278
0.668671 0.665955 0.658905
0.731262 0.696838 0.650543
0.804474 0.712646 0.627167
0.878632 0.716492 0.598663
0.751434 0.752838 0.752075
0.751282 0.752686 0.751587
0.741547 0.742920 0.741058
0.732666 0.733185 0.731079
0.733185 0.733185 0.731079
0.795441 0.794830 0.792725
0.839447 0.825836 0.800903
0.886383 0.844666 0.791168
0.860840 0.862122 0.861450
0.860840 0.862122 0.861176
0.855194 0.856628 0.855072
0.848450 0.849518 0.847534
0.843750 0.844147 0.842224
0.844147 0.844147 0.842224
0.889038 0.888611 0.886658
0.921753 0.917603 0.907776
0.938904 0.939880 0.939362
0.938904 0.939880 0.939209
0.936401 0.937531 0.936462
0.932007 0.932953 0.931641
0.927765 0.928375 0.926880
0.925873 0.926117 0.924652
0.926117 0.926117 0.924652
0.953644 0.953369 0.951904
0.985565 0.986053 0.985779
0.985565 0.986053 0.985718
0.984985 0.985535 0.985077
0.983032 0.983582 0.982941
0.981201 0.981628 0.980896
0.979431 0.979675 0.978882
0.979095 0.979187 0.978455
0.979187 0.979187 0.978455
0.008820 0.000000 0.112305
0.114868 0.000000 0.114868
0.263153 0.000000 0.122528
0.411957 0.000000 0.126923
0.548218 0.005402 0.131958
0.675171 0.006653 0.133148
0.795502 0.007843 0.134369
0.909241 0.008972 0.135559
0.000000 0.117462 0.117462
0.129028 0.129028 0.129028
0.275726 0.130463 0.130463
0.415894 0.131836 0.131836
0.549469 0.133179 0.133179
0.676422 0.134430 0.134430
0.796753 0.135620 0.135620
0.910492 0.136719 0.136719
0.253693 0.322479 0.304626
0.347290 0.347931 0.347595
0.339081 0.339081 0.338135
0.446564 0.396423 0.352478
0.581604 0.383911 0.294983
0.713776 0.356232 0.246033
0.820923 0.357361 0.247101
0.921478 0.358246 0.248108
0.500854 0.515594 0.511597
0.534180 0.535248 0.534668
0.526642 0.527679 0.526245
0.520203 0.520203 0.518585
0.604431 0.592621 0.571716
0.694580 0.617004 0.546265
0.794678 0.617859 0.506714
0.895630 0.604095 0.462036
0.685181 0.686951 0.686462
0.689758 0.691071 0.690369
0.686340 0.687866 0.686432
0.674652 0.675476 0.673431
0.672424 0.672424 0.670410
0.745758 0.743652 0.737976
0.805298 0.774017 0.730347
0.873627 0.790466 0.709839
0.810272 0.812012 0.811432
0.813873 0.815277 0.814514
0.813721 0.815125 0.814026
0.803986 0.805359 0.803497
0.795105 0.795624 0.793518
0.795624 0.795624 0.793518
0.854980 0.854401 0.852295
0.896881 0.885681 0.864136
0.904022 0.905548 0.904999
0.906647 0.907928 0.907257
0.906647 0.907928 0.906982
0.901001 0.902435 0.900879
0.894257 0.895325 0.893341
0.889526 0.889923 0.888000
0.889923 0.889923 0.888000
0.931915 0.931519 0.929565
0.966370 0.967499 0.967072
0.968048 0.969025 0.968506
0.968048 0.969025 0.968353
0.965546 0.966675 0.965607
0.961151 0.962097 0.960785
0.956909 0.957520 0.956024
0.955017 0.955261 0.953796
0.955261 0.955261 0.953796
0.017609 0.000000 0.224579
0.121490 0.000000 0.227417
0.229736 0.000000 0.229736
0.366974 0.000000 0.235107
0.512329 0.000000 0.244293
0.650665 0.000000 0.249573
0.781860 0.000000 0.252930
0.902710 0.003540 0.256866
0.001068 0.115479 0.239685
0.130249 0.121552 0.248779
0.249939 0.122955 0.249939
0.393738 0.123962 0.251068
0.533997 0.129028 0.255890
0.667023 0.134338 0.260742
0.790985 0.135559 0.262146
0.908020 0.136688 0.263245
0.000000 0.234894 0.234894
0.127411 0.248077 0.248077
0.258057 0.258057 0.258057
0.401459 0.259460 0.259460
0.538330 0.260803 0.260803
0.668579 0.262085 0.262085
0.792236 0.263306 0.263306
0.909271 0.264465 0.264465
0.182312 0.442749 0.378082
0.366058 0.434845 0.416992
0.459656 0.460297 0.459961
0.451447 0.451447 0.450500
0.555664 0.508514 0.466064
0.686066 0.498016 0.411072
0.816254 0.468445 0.358337
0.920105 0.469574 0.359375
0.470459 0.587646 0.557220
0.596619 0.611359 0.607361
0.629944 0.631012 0.630432
0.622406 0.623444 0.622009
0.615967 0.615967 0.614349
0.697540 0.687042 0.667908
0.784180 0.711975 0.643921
0.879303 0.714325 0.607147
0.680511 0.730927 0.717499
0.764252 0.766022 0.765533
0.768829 0.770142 0.769440
0.765411 0.766937 0.765503
0.753693 0.754517 0.752472
0.751495 0.751495 0.749481
0.823029 0.821350 0.816711
0.878693 0.851074 0.810913
0.832825 0.852081 0.846863
0.872711 0.874451 0.873871
0.876312 0.877716 0.876953
0.876160 0.877563 0.876465
0.866425 0.867798 0.865936
0.857544 0.858063 0.855957
0.858063 0.858063 0.855957
0.914490 0.913940 0.911835
0.936615 0.941986 0.940521
0.949799 0.951324 0.950775
0.952423 0.953705 0.953033
0.952423 0.953705 0.952759
0.946777 0.948212 0.946655
0.940033 0.941101 0.939117
0.935303 0.935699 0.933777
0.935699 0.935699 0.933777
0.026398 0.000000 0.336853
0.128296 0.000000 0.338623
0.235626 0.000000 0.343445
0.344574 0.000000 0.344574
0.470825 0.000000 0.344727
0.612579 0.000000 0.357452
0.747467 0.000000 0.365509
0.875214 0.000000 0.370941
0.000793 0.107513 0.360565
0.131500 0.114105 0.368500
0.250061 0.115692 0.369690
0.370880 0.116913 0.370880
0.507446 0.114105 0.368103
0.644196 0.119141 0.372681
0.775391 0.122772 0.376892
0.898376 0.127533 0.381226
0.002136 0.236664 0.358734
0.128754 0.244507 0.368683
0.257965 0.250580 0.377808
0.378967 0.251984 0.378967
0.519257 0.253052 0.379974
0.656799 0.257263 0.384460
0.785645 0.263245 0.389496
0.906799 0.264435 0.390991
0.000000 0.352325 0.352325
0.125824 0.367126 0.367126
0.256439 0.377106 0.377106
0.387085 0.387085 0.387085
0.527222 0.388458 0.388458
0.660767 0.389771 0.389771
0.787720 0.391022 0.391022
0.908051 0.392212 0.392212
0.126617 0.547516 0.445374
0.294708 0.555176 0.490509
0.478485 0.547272 0.529419
0.572083 0.572723 0.572388
0.563873 0.563873 0.562927
0.664825 0.620544 0.579590
0.790588 0.612000 0.527100
0.918762 0.580811 0.470642
0.415771 0.684235 0.616394
0.566193 0.683380 0.652954
0.692352 0.707092 0.703094
0.725677 0.726746 0.726166
0.718109 0.719147 0.717712
0.711700 0.711700 0.710083
0.790985 0.781586 0.763855
0.872894 0.806854 0.742462
0.650269 0.795502 0.757813
0.759583 0.809998 0.796570
0.843323 0.845093 0.844604
0.847900 0.849213 0.848511
0.844482 0.846008 0.844574
0.832764 0.833588 0.831543
0.830566 0.830566 0.828552
0.900177 0.898987 0.895569
0.818909 0.893250 0.873627
0.895264 0.914520 0.909302
0.935150 0.936890 0.936310
0.938751 0.940155 0.939392
0.938599 0.940002 0.938904
0.928864 0.930237 0.928375
0.919983 0.920502 0.918396
0.920502 0.920502 0.918396
0.035187 0.000000 0.449127
0.135559 0.000000 0.449951
0.240540 0.000000 0.454681
0.350098 0.000000 0.459473
0.459473 0.000000 0.459473
0.582458 0.000000 0.459442
0.712982 0.000000 0.468231
0.844269 0.000000 0.478394
0.002289 0.099548 0.481171
0.132751 0.106659 0.488251
0.249420 0.107208 0.489410
0.370300 0.110229 0.491241
0.491791 0.110840 0.491791
0.621307 0.104370 0.485382
0.755920 0.107727 0.489746
0.883270 0.111755 0.493744
0.002136 0.230957 0.479370
0.127075 0.236389 0.489594
0.257904 0.243134 0.497589
0.377777 0.244720 0.498657
0.499939 0.245941 0.499939
0.633545 0.242584 0.497253
0.768036 0.246368 0.501465
0.895020 0.250671 0.505524
0.003815 0.356262 0.476990
0.129822 0.365631 0.487701
0.256836 0.373413 0.497253
0.385742 0.379608 0.506866
0.508026 0.381012 0.508026
0.644684 0.382141 0.508911
0.778809 0.386322 0.513367
0.905243 0.391144 0.517914
0.000000 0.469788 0.469788
0.124207 0.486206 0.486206
0.254852 0.496185 0.496185
0.385468 0.506165 0.506165
0.516144 0.516144 0.516144
0.652985 0.517487 0.517487
0.783203 0.518768 0.518768
0.906830 0.519989 0.519989
0.122040 0.647491 0.542419
0.238953 0.659882 0.557739
0.407074 0.667542 0.602875
0.590729 0.659607 0.641724
0.684448 0.685089 0.684753
0.676239 0.676239 0.675293
0.773987 0.732452 0.692993
0.895844 0.725555 0.642303
0.348816 0.792572 0.682404
0.511292 0.779907 0.712036
0.661896 0.779083 0.748657
0.788055 0.802795 0.798798
0.821381 0.822449 0.821869
0.813843 0.814880 0.813446
0.807404 0.807404 0.805786
0.884186 0.875946 0.859894
0.606781 0.873260 0.805389
0.729309 0.874542 0.836853
0.838654 0.889069 0.875641
0.922394 0.924164 0.923676
0.926971 0.928284 0.927582
0.923553 0.925079 0.923645
0.911835 0.912659 0.910614
0.909637 0.909637 0.907623
0.044006 0.000000 0.561401
0.142944 0.000000 0.561401
0.246063 0.000000 0.565887
0.353302 0.000000 0.570618
0.463837 0.000000 0.574310
0.574310 0.000000 0.574310
0.694366 0.000000 0.574341
0.813263 0.000000 0.577789
0.005524 0.092834 0.601593
0.133972 0.099182 0.607971
0.248810 0.099152 0.608734
0.368469 0.102386 0.610229
0.490540 0.104797 0.612671
0.612732 0.104797 0.612732
0.739075 0.098450 0.606293
0.865356 0.098694 0.606506
0.001801 0.223480 0.600342
0.127197 0.228302 0.609894
0.257874 0.235687 0.617279
0.375885 0.236237 0.618347
0.498322 0.238586 0.620850
0.620819 0.239868 0.620819
0.747223 0.233551 0.614532
0.877716 0.237000 0.618530
0.002686 0.352600 0.598877
0.128479 0.359833 0.608307
0.253326 0.365234 0.618591
0.384399 0.372162 0.626617
0.505524 0.373749 0.627655
0.628967 0.374969 0.628967
0.758911 0.371765 0.626007
0.889923 0.375549 0.630219
0.002228 0.475433 0.596039
0.131531 0.485229 0.605927
0.257507 0.494598 0.616669
0.384521 0.502441 0.626251
0.513519 0.508667 0.635895
0.637054 0.510071 0.637054
0.771149 0.510284 0.637848
0.900818 0.515381 0.642242
0.000000 0.587250 0.587250
0.122589 0.605225 0.605225
0.253235 0.615234 0.615234
0.383881 0.625214 0.625214
0.514526 0.635193 0.635193
0.645172 0.645172 0.645172
0.778717 0.646484 0.646484
0.905670 0.647736 0.647736
0.120636 0.751190 0.646057
0.234406 0.759888 0.654816
0.351349 0.772278 0.670135
0.519440 0.779938 0.715271
0.703247 0.772034 0.754181
0.796844 0.797485 0.797150
0.788635 0.788635 0.787689
0.882965 0.844452 0.806732
0.277588 0.905548 0.751617
0.444550 0.888306 0.778137
0.607025 0.875641 0.807770
0.757629 0.874817 0.844391
0.883789 0.898529 0.894531
0.917114 0.918182 0.917603
0.909576 0.910614 0.909180
0.903137 0.903137 0.901520
0.052795 0.000000 0.673676
0.150665 0.000000 0.673676
0.251923 0.000000 0.677063
0.357208 0.000000 0.681793
0.466522 0.000000 0.686615
0.577454 0.000000 0.689178
0.689178 0.000000 0.689178
0.806244 0.000000 0.689117
0.008789 0.086090 0.722046
0.135223 0.091736 0.727692
0.248566 0.091736 0.727692
0.366669 0.093658 0.730103
0.487488 0.096710 0.731903
0.610229 0.098724 0.733612
0.733612 0.098724 0.733612
0.856903 0.092560 0.727386
0.001587 0.215057 0.721191
0.129059 0.221527 0.730255
0.257782 0.228210 0.737000
0.374298 0.229065 0.736664
0.494965 0.231415 0.739166
0.618317 0.233826 0.741699
0.741760 0.233826 0.741760
0.864990 0.227631 0.735535
0.003235 0.346436 0.718994
0.126740 0.352264 0.729279
0.252045 0.357056 0.738617
0.383057 0.364716 0.746307
0.502472 0.365936 0.746613
0.625763 0.368317 0.749146
0.749847 0.368896 0.749847
0.873138 0.362732 0.743683
0.004272 0.473358 0.717468
0.130157 0.481445 0.726715
0.255646 0.488861 0.736420
0.380280 0.494415 0.746979
0.510834 0.501221 0.755615
0.633270 0.502380 0.757050
0.757996 0.504028 0.757996
0.884308 0.500977 0.754883
0.000610 0.594391 0.715088
0.129913 0.604248 0.724976
0.259216 0.614197 0.734863
0.385193 0.623596 0.745636
0.511810 0.631348 0.755676
0.641235 0.637695 0.764923
0.766083 0.639099 0.766083
0.896576 0.639404 0.766724
0.000000 0.704681 0.704681
0.121002 0.724304 0.724304
0.251617 0.734253 0.734253
0.382263 0.744263 0.744263
0.512939 0.754242 0.754242
0.643555 0.764221 0.764221
0.774200 0.774200 0.774200
0.904449 0.775482 0.775482
0.119232 0.854858 0.749786
0.233002 0.863556 0.758423
0.346802 0.872253 0.767181
0.463715 0.884644 0.782501
0.631866 0.892303 0.827637
0.815613 0.884399 0.866547
0.909210 0.909851 0.909515
0.901001 0.901001 0.900055
0.061584 0.000000 0.785950
0.158295 0.000000 0.785950
0.257874 0.000000 0.788269
0.361664 0.000000 0.792999
0.468719 0.000000 0.797638
0.579590 0.000000 0.802582
0.691162 0.000000 0.804016
0.804016 0.000000 0.804016
0.012054 0.079376 0.842499
0.136444 0.084290 0.847443
0.248444 0.084290 0.847443
0.364655 0.085388 0.849518
0.484375 0.089081 0.850677
0.606354 0.091461 0.853088
0.729736 0.092682 0.854553
0.854553 0.092682 0.854553
0.001312 0.205963 0.842102
0.130920 0.214569 0.850616
0.257721 0.220764 0.856720
0.372467 0.220764 0.856720
0.491730 0.222687 0.858978
0.613770 0.225739 0.860718
0.737854 0.227753 0.862640
0.862640 0.227753 0.862640
0.003265 0.339325 0.839569
0.125153 0.343750 0.850128
0.252533 0.350098 0.858917
0.381714 0.357239 0.866028
0.499084 0.357239 0.866455
0.621338 0.359558 0.868958
0.746338 0.361969 0.871490
0.870789 0.362854 0.870789
0.004395 0.468353 0.837891
0.128204 0.475403 0.847931
0.251617 0.481201 0.858307
0.376953 0.485809 0.867401
0.508301 0.493774 0.875366
0.628632 0.494324 0.876129
0.753479 0.497375 0.878143
0.878876 0.497955 0.878876
0.006134 0.593231 0.835632
0.130646 0.602234 0.846313
0.256470 0.610352 0.855682
0.381989 0.617798 0.865387
0.506561 0.623260 0.875977
0.637329 0.630249 0.884644
0.760956 0.631866 0.885590
0.887024 0.633057 0.887024
0.000000 0.712738 0.833160
0.128326 0.723297 0.844025
0.257629 0.733215 0.853912
0.386932 0.743195 0.863800
0.513641 0.752258 0.873901
0.639465 0.760315 0.884613
0.768982 0.766724 0.893951
0.895111 0.768127 0.895111
0.000000 0.822113 0.822113
0.119385 0.843323 0.843323
0.250031 0.853333 0.853333
0.380646 0.863281 0.863281
0.511322 0.873291 0.873291
0.641968 0.883270 0.883270
0.772583 0.893250 0.893250
0.903229 0.903229 0.903229
