greenToWhite.CUBE
#Created by: Adobe Photoshop Export Color Lookup Plugin
TITLE "greensacpe.jpg"
#LUT size
LUT_3D_SIZE 32
#data domain
DOMAIN_MIN 0.0 0.0 0.0
DOMAIN_MAX 1.0 1.0 1.0
#LUT data points
0.000000 0.000000 0.000000
0.038116 0.000366 0.000366
0.075836 0.000732 0.000732
0.113129 0.001099 0.001099
0.150024 0.001465 0.001465
0.186493 0.001831 0.001831
0.222565 0.002197 0.002197
0.258209 0.002533 0.002533
0.293457 0.002899 0.002899
0.328278 0.003235 0.003235
0.362701 0.003571 0.003571
0.396698 0.003906 0.003906
0.430298 0.004242 0.004242
0.463470 0.004578 0.004578
0.496216 0.004883 0.004883
0.528595 0.005219 0.005219
0.560577 0.005524 0.005524
0.592072 0.005829 0.005829
0.623199 0.006134 0.006134
0.653900 0.006439 0.006439
0.684235 0.006744 0.006744
0.714081 0.007050 0.007050
0.743561 0.007324 0.007324
0.772614 0.007599 0.007599
0.801270 0.007904 0.007904
0.829498 0.008179 0.008179
0.857330 0.008453 0.008453
0.884735 0.008728 0.008728
0.911713 0.008972 0.008972
0.938324 0.009247 0.009247
0.964447 0.009491 0.009491
0.990234 0.009766 0.009766
0.061646 0.061829 0.061737
0.059387 0.059387 0.059113
0.090973 0.075439 0.062439
0.132202 0.070648 0.044708
0.172577 0.064240 0.033630
0.208252 0.064575 0.033997
0.243469 0.064911 0.034332
0.278290 0.065308 0.034668
0.312714 0.065582 0.035004
0.346710 0.065979 0.035339
0.380310 0.066315 0.035675
0.413513 0.066620 0.036011
0.446259 0.066956 0.036346
0.478638 0.067291 0.036652
0.510559 0.067596 0.036957
0.542084 0.067871 0.037292
0.573242 0.068207 0.037598
0.603943 0.068420 0.037872
0.634216 0.068726 0.038177
0.664124 0.069031 0.038483
0.693604 0.069305 0.038757
0.722656 0.069611 0.039063
0.751282 0.069916 0.039337
0.779510 0.070129 0.039612
0.807343 0.070435 0.039886
0.834747 0.070801 0.040161
0.861755 0.071106 0.040436
0.888336 0.071320 0.040680
0.914490 0.071655 0.040955
0.940247 0.071716 0.041199
0.965576 0.072113 0.041443
0.990540 0.072266 0.041687
0.121368 0.121704 0.121521
0.118988 0.119324 0.118866
0.116974 0.116974 0.116455
0.144928 0.140472 0.132965
0.177551 0.148010 0.123108
0.215454 0.146576 0.107605
0.255768 0.139221 0.089478
0.297058 0.128113 0.070099
0.332001 0.126312 0.067139
0.365173 0.126648 0.067474
0.397949 0.126984 0.067810
0.430298 0.127258 0.068115
0.462219 0.127655 0.068420
0.493774 0.127869 0.068726
0.524902 0.128265 0.069061
0.555603 0.128571 0.069336
0.585907 0.128876 0.069641
0.615814 0.129120 0.069946
0.645264 0.129456 0.070221
0.674347 0.129639 0.070526
0.702972 0.129913 0.070801
0.731201 0.130219 0.071075
0.759003 0.130615 0.071350
0.786407 0.130768 0.071625
0.813446 0.131104 0.071899
0.840027 0.131378 0.072144
0.866180 0.131531 0.072418
0.891937 0.131866 0.072662
0.917267 0.132080 0.072906
0.942230 0.132355 0.073151
0.966736 0.132507 0.073395
0.990845 0.132751 0.073639
0.179108 0.179596 0.179321
0.177856 0.178436 0.177887
0.173553 0.173859 0.173096
0.172729 0.172729 0.171997
0.201141 0.199951 0.196960
0.227234 0.212006 0.192749
0.259705 0.217621 0.181915
0.295258 0.217499 0.167725
0.332825 0.213013 0.151245
0.371277 0.205383 0.133698
0.408966 0.195923 0.116516
0.447113 0.185913 0.100220
0.478210 0.186188 0.100525
0.508942 0.186523 0.100830
0.539215 0.186798 0.101135
0.569092 0.187164 0.101410
0.598602 0.187347 0.101715
0.627655 0.187714 0.101990
0.656281 0.188049 0.102295
0.684540 0.188232 0.102570
0.712372 0.188568 0.102844
0.739746 0.188751 0.103119
0.766754 0.189026 0.103363
0.793335 0.189331 0.103638
0.819519 0.189484 0.103882
0.845276 0.189911 0.104156
0.870636 0.190063 0.104401
0.895569 0.190369 0.104645
0.920074 0.190674 0.104889
0.944183 0.190765 0.105133
0.967865 0.191040 0.105347
0.991180 0.191223 0.105591
0.234894 0.235535 0.235199
0.234802 0.235443 0.234924
0.230469 0.231079 0.230225
0.226440 0.226685 0.225739
0.226685 0.226685 0.225739
0.255798 0.255524 0.254578
0.278412 0.270264 0.256561
0.306335 0.279663 0.249481
0.337494 0.284302 0.238861
0.371094 0.284882 0.225616
0.405731 0.282196 0.210968
0.441589 0.276886 0.194916
0.477234 0.269714 0.178772
0.513123 0.261108 0.162262
0.548676 0.251343 0.145660
0.582611 0.243683 0.133484
0.611267 0.243958 0.133789
0.639526 0.244263 0.134064
0.667328 0.244568 0.134338
0.694733 0.244843 0.134613
0.721741 0.245056 0.134857
0.748322 0.245300 0.135132
0.774475 0.245544 0.135376
0.800262 0.245819 0.135651
0.825623 0.246033 0.135895
0.850555 0.246368 0.136139
0.875061 0.246582 0.136383
0.899170 0.246826 0.136627
0.922852 0.246979 0.136841
0.946167 0.247314 0.137085
0.968994 0.247559 0.137299
0.991486 0.247589 0.137512
0.288727 0.289490 0.289093
0.288727 0.289490 0.288940
0.285400 0.286255 0.285339
0.281403 0.282043 0.280853
0.278656 0.278870 0.277740
0.278870 0.278870 0.277740
0.306915 0.306641 0.305511
0.329346 0.325165 0.316345
0.353485 0.336456 0.312317
0.381073 0.344086 0.304535
0.410980 0.348145 0.294037
0.442505 0.349213 0.281830
0.474792 0.347717 0.268494
0.508179 0.343994 0.253845
0.541382 0.338745 0.239105
0.574463 0.332062 0.224121
0.607849 0.324280 0.208710
0.640350 0.316010 0.193939
0.673401 0.306458 0.178162
0.704956 0.299225 0.166626
0.731140 0.299561 0.166901
0.756866 0.299744 0.167145
0.782227 0.300079 0.167389
0.807159 0.300354 0.167633
0.831665 0.300446 0.167877
0.855804 0.300751 0.168121
0.879486 0.300995 0.168365
0.902771 0.301208 0.168579
0.925659 0.301483 0.168823
0.948090 0.301605 0.169037
0.970154 0.301819 0.169250
0.991791 0.302155 0.169464
0.340607 0.341492 0.341034
0.340607 0.341492 0.340881
0.338379 0.339386 0.338440
0.334442 0.335297 0.334137
0.330658 0.331207 0.329865
0.329010 0.329224 0.327911
0.329224 0.329224 0.327911
0.356171 0.355896 0.354584
0.379578 0.377563 0.372437
0.400696 0.389587 0.370667
0.424835 0.398834 0.365448
0.452148 0.405334 0.356903
0.480164 0.408997 0.347260
0.509918 0.410370 0.335754
0.539612 0.409698 0.323914
0.570465 0.407288 0.310822
0.601318 0.403381 0.297302
0.633392 0.397888 0.282349
0.663086 0.392212 0.269501
0.693420 0.385468 0.255768
0.724335 0.377838 0.241272
0.754669 0.369568 0.226959
0.784210 0.361267 0.213226
0.814056 0.352661 0.199646
0.837769 0.352966 0.199890
0.861053 0.353088 0.200104
0.883942 0.353394 0.200348
0.906372 0.353577 0.200562
0.928436 0.353912 0.200775
0.950073 0.354065 0.200989
0.971283 0.354248 0.201202
0.992126 0.354492 0.201416
0.390503 0.391479 0.390961
0.390503 0.391479 0.390808
0.389313 0.390411 0.389465
0.385406 0.386505 0.385254
0.381775 0.382629 0.381165
0.378174 0.378662 0.377075
0.377502 0.377716 0.376251
0.377716 0.377716 0.376251
0.403625 0.403381 0.401886
0.428406 0.427704 0.425598
0.446686 0.439697 0.425812
0.468353 0.449951 0.422363
0.492645 0.457886 0.415894
0.518463 0.463531 0.407806
0.545013 0.466919 0.398560
0.573181 0.468384 0.387512
0.601379 0.468231 0.376190
0.629608 0.466675 0.364563
0.657501 0.464111 0.353088
0.687042 0.459930 0.339539
0.715790 0.455200 0.326660
0.743195 0.449921 0.314636
0.772095 0.443726 0.301178
0.799225 0.437317 0.288940
0.827789 0.429871 0.275085
0.854248 0.422943 0.263214
0.880737 0.415344 0.250793
0.908691 0.406769 0.236816
0.931244 0.404144 0.232758
0.952057 0.404297 0.232941
0.972412 0.404602 0.233154
0.992432 0.404755 0.233337
0.438446 0.439514 0.438934
0.438446 0.439514 0.438812
0.438324 0.439392 0.438538
0.434387 0.435699 0.434357
0.430908 0.431946 0.430511
0.427399 0.428162 0.426605
0.424072 0.424469 0.422852
0.424255 0.424469 0.422852
0.424469 0.424469 0.422852
0.449249 0.449005 0.447388
0.473694 0.473206 0.471588
0.491760 0.487427 0.477570
0.511353 0.498108 0.475403
0.532806 0.506866 0.470978
0.556244 0.513763 0.464447
0.580444 0.518738 0.456848
0.605652 0.522064 0.448090
0.631927 0.523621 0.437805
0.657745 0.523956 0.427795
0.683929 0.523010 0.417053
0.710266 0.521057 0.405975
0.736542 0.518402 0.394836
0.763458 0.514587 0.382690
0.789978 0.510132 0.370544
0.814880 0.505585 0.359802
0.841125 0.500122 0.347565
0.866486 0.494232 0.335785
0.890839 0.488739 0.325073
0.915192 0.482422 0.313690
0.939636 0.475891 0.302216
0.962677 0.469330 0.291534
0.987091 0.462189 0.279633
0.484406 0.485565 0.484955
0.484406 0.485565 0.484833
0.484406 0.485565 0.484680
0.481476 0.482819 0.481537
0.477936 0.479218 0.477692
0.474579 0.475616 0.473938
0.471283 0.472015 0.470245
0.468994 0.469391 0.467651
0.469208 0.469391 0.467651
0.469391 0.469391 0.467651
0.493103 0.492859 0.491119
0.516418 0.515961 0.514221
0.535431 0.532898 0.526459
0.552673 0.543518 0.525818
0.572113 0.552795 0.522675
0.593018 0.560425 0.517792
0.615479 0.566528 0.511139
0.638000 0.571045 0.504242
0.661407 0.574127 0.496063
0.686218 0.575867 0.486328
0.710175 0.576477 0.477051
0.734283 0.576172 0.467438
0.758331 0.574860 0.457489
0.782104 0.573029 0.447723
0.806305 0.570221 0.437073
0.830994 0.566864 0.425934
0.855042 0.562958 0.415039
0.878265 0.558777 0.404663
0.900482 0.554626 0.395081
0.923950 0.549286 0.383789
0.946320 0.544373 0.373657
0.967377 0.539398 0.364349
0.528442 0.529663 0.529022
0.528442 0.529663 0.528900
0.528442 0.529663 0.528778
0.526459 0.527863 0.526611
0.523041 0.524414 0.522919
0.519806 0.520996 0.519379
0.516602 0.517609 0.515717
0.513428 0.514038 0.512299
0.512115 0.512482 0.510651
0.512299 0.512482 0.510651
0.512482 0.512482 0.510651
0.535126 0.534912 0.533051
0.557373 0.556946 0.555084
0.577545 0.576233 0.572510
0.592926 0.586548 0.572845
0.610352 0.595978 0.571014
0.629089 0.604065 0.567596
0.649536 0.610870 0.562134
0.670532 0.616241 0.555878
0.691437 0.620331 0.549438
0.713501 0.623230 0.541534
0.736053 0.625122 0.533051
0.758759 0.625793 0.523804
0.780823 0.625916 0.515228
0.802582 0.625397 0.506714
0.824768 0.623932 0.497284
0.846405 0.621979 0.488159
0.868378 0.619507 0.478577
0.890564 0.616455 0.468475
0.911926 0.613251 0.459015
0.932281 0.609924 0.450226
0.952637 0.606049 0.441040
0.570496 0.571777 0.571106
0.570496 0.571777 0.570984
0.570496 0.571777 0.570862
0.569519 0.570801 0.569733
0.566040 0.567627 0.566040
0.562927 0.564362 0.562622
0.559906 0.561096 0.559265
0.556915 0.557800 0.555908
0.553955 0.554565 0.552429
0.553467 0.553802 0.551880
0.553619 0.553802 0.551880
0.553802 0.553802 0.551880
0.575317 0.575104 0.573181
0.596497 0.596069 0.594147
0.617310 0.616699 0.614746
0.631439 0.627289 0.617462
0.647217 0.636658 0.616455
0.664215 0.644897 0.613861
0.682465 0.652039 0.609741
0.701599 0.658051 0.604584
0.721161 0.662872 0.598694
0.740845 0.666687 0.592529
0.761414 0.669464 0.585114
0.781494 0.671265 0.577759
0.802307 0.672424 0.569702
0.822144 0.672882 0.562225
0.843201 0.672394 0.553162
0.862122 0.671875 0.546112
0.882996 0.670258 0.536682
0.901306 0.668762 0.529541
0.921661 0.666473 0.520264
0.940125 0.664246 0.512573
0.610626 0.611938 0.611237
0.610626 0.611938 0.611115
0.610626 0.611938 0.611023
0.610443 0.611786 0.610718
0.607208 0.608734 0.607300
0.604095 0.605713 0.603882
0.601257 0.602539 0.600769
0.598358 0.599396 0.597565
0.595490 0.596313 0.594269
0.592804 0.593292 0.591278
0.592957 0.593292 0.591278
0.593140 0.593292 0.591278
0.593292 0.593292 0.591278
0.613739 0.613525 0.611542
0.633820 0.633423 0.631409
0.653534 0.652954 0.650940
0.668671 0.665955 0.658905
0.682556 0.674927 0.658997
0.698303 0.683289 0.656860
0.714661 0.690582 0.653961
0.731262 0.696838 0.650543
0.749481 0.702148 0.645081
0.767365 0.706543 0.639862
0.786102 0.709961 0.633392
0.804474 0.712646 0.627167
0.822723 0.714569 0.620697
0.841431 0.715790 0.613495
0.860657 0.716431 0.605713
0.878632 0.716492 0.598663
0.896790 0.716095 0.591217
0.914307 0.715454 0.584259
0.931854 0.714172 0.576782
0.648743 0.650116 0.649384
0.648743 0.650116 0.649292
0.648743 0.650116 0.649170
0.648743 0.650116 0.649078
0.646332 0.647797 0.646484
0.643311 0.644867 0.643250
0.640533 0.641907 0.640198
0.637756 0.639008 0.637085
0.635071 0.636047 0.634094
0.632324 0.633026 0.631104
0.630524 0.630981 0.628937
0.630676 0.630981 0.628937
0.630829 0.630981 0.628937
0.630981 0.630981 0.628937
0.650360 0.650177 0.648102
0.669342 0.668976 0.666901
0.687988 0.687439 0.685394
0.704010 0.702423 0.697968
0.716553 0.711029 0.698486
0.730347 0.719086 0.697601
0.745178 0.726440 0.695404
0.760651 0.732910 0.692352
0.776367 0.738403 0.688599
0.793060 0.743225 0.683716
0.809601 0.747162 0.678741
0.826813 0.750427 0.672852
0.843384 0.752991 0.667297
0.859741 0.754944 0.661743
0.877106 0.756165 0.654785
0.893372 0.757141 0.648834
0.910583 0.757385 0.641510
0.925537 0.757629 0.636322
0.684937 0.686310 0.685577
0.684937 0.686310 0.685486
0.684937 0.686310 0.685394
0.684937 0.686310 0.685272
0.683258 0.684814 0.683472
0.680389 0.682068 0.680389
0.677734 0.679291 0.677490
0.675140 0.676514 0.674652
0.672546 0.673767 0.671692
0.669983 0.670929 0.668854
0.667480 0.668182 0.665924
0.666382 0.666840 0.664764
0.666534 0.666840 0.664764
0.666687 0.666840 0.664764
0.666840 0.666840 0.664764
0.685120 0.684937 0.682861
0.703064 0.702698 0.700623
0.720612 0.720093 0.717987
0.737549 0.736755 0.734406
0.748718 0.744904 0.735565
0.760956 0.752655 0.735474
0.774658 0.759918 0.733521
0.788361 0.766296 0.731415
0.803040 0.772034 0.727966
0.817322 0.776947 0.724731
0.832794 0.781311 0.720093
0.847839 0.784851 0.715454
0.862823 0.787872 0.710754
0.878143 0.790161 0.705231
0.892578 0.792236 0.700684
0.907837 0.793488 0.694641
0.922638 0.794586 0.689117
0.719147 0.720551 0.719788
0.719147 0.720551 0.719696
0.719147 0.720551 0.719604
0.719147 0.720551 0.719513
0.718323 0.719696 0.718567
0.715546 0.717163 0.715637
0.712952 0.714539 0.712830
0.710449 0.712006 0.710052
0.708038 0.709351 0.707367
0.705627 0.706787 0.704620
0.703217 0.704102 0.701965
0.700836 0.701416 0.699341
0.700470 0.700897 0.698792
0.700623 0.700897 0.698792
0.700745 0.700897 0.698792
0.700897 0.700897 0.698792
0.718140 0.717957 0.715851
0.734955 0.734619 0.732513
0.751404 0.750916 0.748810
0.767517 0.766876 0.764771
0.779205 0.776672 0.769989
0.790222 0.783997 0.770172
0.802094 0.790924 0.769379
0.814728 0.797241 0.767426
0.827637 0.802887 0.764984
0.840973 0.807983 0.761963
0.854004 0.812347 0.758911
0.868042 0.816223 0.754547
0.881531 0.819489 0.750488
0.894775 0.822205 0.746368
0.908264 0.824493 0.741760
0.921326 0.826355 0.737335
0.751434 0.752838 0.752075
0.751434 0.752838 0.752014
0.751434 0.752838 0.751923
0.751434 0.752838 0.751831
0.751282 0.752686 0.751587
0.748718 0.750244 0.748871
0.746155 0.747864 0.746094
0.743835 0.745392 0.743561
0.741547 0.742920 0.741058
0.739258 0.740509 0.738434
0.737000 0.738007 0.735962
0.734772 0.735565 0.733368
0.732666 0.733185 0.731079
0.732788 0.733185 0.731079
0.732910 0.733185 0.731079
0.733063 0.733185 0.731079
0.733185 0.733185 0.731079
0.749298 0.749146 0.747040
0.765045 0.764740 0.762634
0.780426 0.779968 0.777863
0.795441 0.794830 0.792725
0.807983 0.806366 0.801819
0.817657 0.813171 0.802490
0.828094 0.819702 0.802399
0.839447 0.825836 0.800903
0.851105 0.831421 0.799042
0.862610 0.836304 0.796875
0.874725 0.840820 0.793976
0.886383 0.844666 0.791168
0.898926 0.848145 0.787292
0.911285 0.851135 0.783295
0.922760 0.853638 0.779907
0.781738 0.783112 0.782379
0.781738 0.783112 0.782288
0.781738 0.783112 0.782227
0.781738 0.783112 0.782135
0.781738 0.783112 0.782043
0.779724 0.781311 0.779938
0.777344 0.779022 0.777374
0.775116 0.776825 0.774933
0.772949 0.774475 0.772552
0.770844 0.772278 0.770142
0.768738 0.769928 0.767792
0.766663 0.767578 0.765503
0.764526 0.765198 0.763214
0.763153 0.763641 0.761566
0.763275 0.763641 0.761566
0.763397 0.763641 0.761566
0.763519 0.763641 0.761566
0.763641 0.763641 0.761566
0.778656 0.778503 0.776428
0.793335 0.793060 0.790955
0.807587 0.807159 0.805084
0.821533 0.820984 0.818878
0.834747 0.833862 0.831207
0.843475 0.840302 0.832184
0.852814 0.846405 0.832275
0.862427 0.852081 0.831787
0.872833 0.857452 0.830353
0.883087 0.862183 0.828613
0.893494 0.866577 0.826660
0.904236 0.870453 0.823914
0.914948 0.873962 0.821136
0.925354 0.876953 0.818176
0.810059 0.811432 0.810699
0.810059 0.811432 0.810638
0.810059 0.811432 0.810547
0.810059 0.811432 0.810455
0.810059 0.811432 0.810394
0.808777 0.810272 0.809021
0.806580 0.808167 0.806671
0.804474 0.806000 0.804382
0.802460 0.803955 0.802155
0.800446 0.801788 0.799957
0.798492 0.799713 0.797729
0.796509 0.797638 0.795471
0.794586 0.795441 0.793335
0.792664 0.793335 0.791077
0.791840 0.792297 0.790253
0.791962 0.792297 0.790253
0.792084 0.792297 0.790253
0.792175 0.792297 0.790253
0.792297 0.792297 0.790253
0.806244 0.806122 0.804047
0.819794 0.819519 0.817474
0.832977 0.832581 0.830536
0.845825 0.845306 0.843262
0.858307 0.857666 0.855621
0.867279 0.865143 0.859344
0.875397 0.870789 0.859955
0.883942 0.876099 0.859741
0.893158 0.881195 0.858673
0.902313 0.885803 0.857391
0.911499 0.889954 0.855713
0.920624 0.893677 0.853882
0.929993 0.897064 0.851471
0.836456 0.837769 0.837067
0.836456 0.837769 0.837006
0.836456 0.837769 0.836945
0.836456 0.837769 0.836853
0.836456 0.837769 0.836792
0.835754 0.837158 0.836029
0.833710 0.835175 0.833832
0.831665 0.833282 0.831635
0.829803 0.831299 0.829620
0.827911 0.829376 0.827515
0.826080 0.827484 0.825439
0.824341 0.825378 0.823578
0.822540 0.823456 0.821503
0.820740 0.821503 0.819427
0.818939 0.819489 0.817505
0.818695 0.819122 0.817108
0.818817 0.819122 0.817108
0.818909 0.819122 0.817108
0.819031 0.819122 0.817108
0.819122 0.819122 0.817108
0.831970 0.831848 0.829834
0.844452 0.844208 0.842194
0.856598 0.856232 0.854218
0.868317 0.867828 0.865845
0.879730 0.879150 0.877136
0.889221 0.887939 0.884216
0.896301 0.893036 0.884857
0.903870 0.897980 0.884888
0.911438 0.902527 0.884583
0.919434 0.906830 0.883636
0.927826 0.910858 0.882080
0.935425 0.914307 0.880890
0.860840 0.862122 0.861450
0.860840 0.862122 0.861359
0.860840 0.862122 0.861298
0.860840 0.862122 0.861237
0.860840 0.862122 0.861176
0.860718 0.862000 0.860992
0.858795 0.860260 0.858978
0.856934 0.858459 0.856964
0.855194 0.856628 0.855072
0.853455 0.854889 0.853149
0.851807 0.853058 0.851349
0.850098 0.851288 0.849426
0.848450 0.849518 0.847534
0.846802 0.847656 0.845734
0.845123 0.845764 0.843933
0.843658 0.844147 0.842224
0.843750 0.844147 0.842224
0.843872 0.844147 0.842224
0.843964 0.844147 0.842224
0.844055 0.844147 0.842224
0.844147 0.844147 0.842224
0.855927 0.855804 0.853882
0.867310 0.867096 0.865143
0.878326 0.877991 0.876068
0.889038 0.888611 0.886658
0.899323 0.898773 0.896851
0.909149 0.908508 0.906586
0.915405 0.913239 0.907440
0.921753 0.917603 0.907776
0.928589 0.921875 0.907471
0.935242 0.925720 0.907013
0.942200 0.929352 0.906036
0.883301 0.884521 0.883881
0.883301 0.884521 0.883820
0.883301 0.884521 0.883759
0.883301 0.884521 0.883698
0.883301 0.884521 0.883636
0.883301 0.884521 0.883575
0.881836 0.883209 0.882019
0.880157 0.881561 0.880219
0.878510 0.879883 0.878448
0.876953 0.878326 0.876740
0.875397 0.876740 0.875000
0.873901 0.875061 0.873352
0.872345 0.873444 0.871613
0.870880 0.871765 0.869995
0.869385 0.870148 0.868256
0.867920 0.868530 0.866547
0.866913 0.867340 0.865509
0.867004 0.867340 0.865509
0.867065 0.867340 0.865509
0.867157 0.867340 0.865509
0.867249 0.867340 0.865509
0.867340 0.867340 0.865509
0.878052 0.877960 0.876099
0.888336 0.888123 0.886292
0.898315 0.898010 0.896179
0.907867 0.907471 0.905640
0.917114 0.916626 0.914795
0.925964 0.925385 0.923553
0.932739 0.931335 0.927338
0.938019 0.935181 0.927979
0.943665 0.938904 0.928040
0.949371 0.942413 0.927795
0.903778 0.904938 0.904327
0.903778 0.904938 0.904266
0.903778 0.904938 0.904205
0.903778 0.904938 0.904175
0.903778 0.904938 0.904114
0.903778 0.904938 0.904053
0.902924 0.904083 0.903107
0.901367 0.902649 0.901459
0.899780 0.901215 0.899780
0.898376 0.899780 0.898224
0.897003 0.898285 0.896729
0.895660 0.896759 0.895233
0.894257 0.895325 0.893677
0.892914 0.893890 0.892120
0.891571 0.892365 0.890656
0.890228 0.890900 0.889099
0.888916 0.889465 0.887543
0.888367 0.888763 0.887024
0.888458 0.888763 0.887024
0.888519 0.888763 0.887024
0.888611 0.888763 0.887024
0.888672 0.888763 0.887024
0.888763 0.888763 0.887024
0.898346 0.898254 0.896515
0.907562 0.907379 0.905640
0.916443 0.916168 0.914429
0.924927 0.924591 0.922852
0.933075 0.932648 0.930908
0.940857 0.940338 0.938599
0.947937 0.947205 0.944977
0.952423 0.950592 0.945679
0.957184 0.953888 0.945831
0.922333 0.923401 0.922821
0.922333 0.923401 0.922791
0.922333 0.923401 0.922729
0.922333 0.923401 0.922699
0.922333 0.923401 0.922638
0.922333 0.923401 0.922607
0.921844 0.922974 0.922058
0.920532 0.921692 0.920654
0.919098 0.920380 0.919128
0.917877 0.919067 0.917786
0.916595 0.917786 0.916382
0.915344 0.916534 0.915009
0.914124 0.915161 0.913666
0.912933 0.913879 0.912292
0.911713 0.912598 0.910919
0.910553 0.911255 0.909637
0.909302 0.909851 0.908325
0.908142 0.908569 0.906952
0.907990 0.908356 0.906738
0.908081 0.908356 0.906738
0.908142 0.908356 0.906738
0.908203 0.908356 0.906738
0.908295 0.908356 0.906738
0.908356 0.908356 0.906738
0.916840 0.916748 0.915131
0.924988 0.924835 0.923218
0.932770 0.932526 0.930908
0.940186 0.939880 0.938263
0.947235 0.946869 0.945251
0.953918 0.953491 0.951874
0.960266 0.959778 0.958160
0.964935 0.963898 0.960876
0.938904 0.939880 0.939362
0.938904 0.939880 0.939331
0.938904 0.939880 0.939270
0.938904 0.939880 0.939240
0.938904 0.939880 0.939209
0.938904 0.939880 0.939148
0.938782 0.939758 0.938995
0.937561 0.938660 0.937714
0.936401 0.937531 0.936462
0.935181 0.936401 0.935150
0.934082 0.935272 0.933929
0.933014 0.934113 0.932770
0.932007 0.932953 0.931641
0.930908 0.931824 0.930420
0.929871 0.930634 0.929291
0.928802 0.929504 0.928070
0.927765 0.928375 0.926880
0.926697 0.927155 0.925751
0.925751 0.926117 0.924652
0.925812 0.926117 0.924652
0.925873 0.926117 0.924652
0.925934 0.926117 0.924652
0.925995 0.926117 0.924652
0.926056 0.926117 0.924652
0.926117 0.926117 0.924652
0.933563 0.933502 0.932007
0.940613 0.940460 0.938995
0.947296 0.947083 0.945618
0.953644 0.953369 0.951904
0.959625 0.959290 0.957825
0.965210 0.964844 0.963348
0.970459 0.970032 0.968567
0.953522 0.954407 0.953949
0.953522 0.954407 0.953888
0.953522 0.954407 0.953857
0.953522 0.954407 0.953827
0.953522 0.954407 0.953796
0.953522 0.954407 0.953766
0.953522 0.954407 0.953735
0.952637 0.953583 0.952789
0.951630 0.952606 0.951691
0.950592 0.951660 0.950592
0.949677 0.950653 0.949585
0.948730 0.949707 0.948547
0.947754 0.948730 0.947479
0.946899 0.947723 0.946533
0.945984 0.946777 0.945496
0.945068 0.945801 0.944427
0.944183 0.944763 0.943481
0.943298 0.943817 0.942444
0.942413 0.942841 0.941406
0.941833 0.942139 0.940826
0.941864 0.942139 0.940826
0.941925 0.942139 0.940826
0.941986 0.942139 0.940826
0.942047 0.942139 0.940826
0.942078 0.942139 0.940826
0.942139 0.942139 0.940826
0.948456 0.948395 0.947083
0.954407 0.954285 0.952972
0.960052 0.959869 0.958557
0.965271 0.965057 0.963715
0.970154 0.969879 0.968567
0.974701 0.974396 0.973053
0.966156 0.966919 0.966522
0.966156 0.966919 0.966492
0.966156 0.966919 0.966461
0.966156 0.966919 0.966431
0.966156 0.966919 0.966400
0.966156 0.966919 0.966370
0.966156 0.966919 0.966339
0.965668 0.966400 0.965790
0.964813 0.965637 0.964905
0.963959 0.964844 0.963989
0.963135 0.963989 0.963104
0.962372 0.963226 0.962250
0.961609 0.962372 0.961426
0.960846 0.961578 0.960571
0.960052 0.960754 0.959686
0.959290 0.959900 0.958862
0.958557 0.959106 0.958008
0.957794 0.958282 0.957153
0.957031 0.957428 0.956360
0.956329 0.956635 0.955505
0.956024 0.956299 0.955170
0.956085 0.956299 0.955170
0.956116 0.956299 0.955170
0.956177 0.956299 0.955170
0.956207 0.956299 0.955170
0.956268 0.956299 0.955170
0.956299 0.956299 0.955170
0.961517 0.961456 0.960327
0.966400 0.966309 0.965149
0.970947 0.970795 0.969666
0.975098 0.974915 0.973785
0.978912 0.978699 0.977539
0.976837 0.977478 0.977142
0.976837 0.977478 0.977112
0.976837 0.977478 0.977081
0.976837 0.977478 0.977051
0.976837 0.977478 0.977051
0.976837 0.977478 0.977020
0.976837 0.977478 0.976990
0.976593 0.977234 0.976715
0.975891 0.976624 0.975983
0.975220 0.975952 0.975250
0.974548 0.975311 0.974518
0.973907 0.974670 0.973816
0.973297 0.973999 0.973175
0.972687 0.973358 0.972473
0.972107 0.972687 0.971832
0.971466 0.972046 0.971130
0.970856 0.971405 0.970428
0.970276 0.970703 0.969788
